packages/credential/logos/event-white.svg

<svg width="24" height="24" viewBox="0 0 24 24" fill="none" xmlns="http://www.w3.org/2000/svg">
    <path
        d="M6.46154 7.38461C6.46154 6.48696 6.81813 5.62607 7.45287 4.99133C8.0876 4.35659 8.94849 4 9.84615 4C10.7438 4 11.6047 4.35659 12.2394 4.99133C12.8742 5.62607 13.2308 6.48696 13.2308 7.38461C13.2308 8.28227 12.8742 9.14316 12.2394 9.7779C11.6047 10.4126 10.7438 10.7692 9.84615 10.7692C8.94849 10.7692 8.0876 10.4126 7.45287 9.7779C6.81813 9.14316 6.46154 8.28227 6.46154 7.38461ZM4 17.8461C4 16.2956 4.61593 14.8087 5.7123 13.7123C6.80866 12.6159 8.29565 12 9.84615 12C11.3966 12 12.8836 12.6159 13.98 13.7123C15.0764 14.8087 15.6923 16.2956 15.6923 17.8461V17.8486L15.6915 17.9462C15.6897 18.0506 15.6615 18.1528 15.6094 18.2432C15.5573 18.3336 15.483 18.4093 15.3936 18.4632C13.7191 19.4716 11.8008 20.003 9.84615 20C7.81784 20 5.91918 19.4388 4.29949 18.4632C4.20993 18.4094 4.13552 18.3338 4.08327 18.2434C4.03102 18.1529 4.00265 18.0507 4.00082 17.9462L4 17.8461ZM17.5384 8.30769C17.5384 8.14448 17.4736 7.98795 17.3582 7.87255C17.2428 7.75714 17.0863 7.6923 16.9231 7.6923C16.7599 7.6923 16.6033 7.75714 16.4879 7.87255C16.3725 7.98795 16.3077 8.14448 16.3077 8.30769V10.1538H14.4615C14.2983 10.1538 14.1418 10.2187 14.0264 10.3341C13.911 10.4495 13.8461 10.606 13.8461 10.7692C13.8461 10.9324 13.911 11.089 14.0264 11.2044C14.1418 11.3198 14.2983 11.3846 14.4615 11.3846H16.3077V13.2308C16.3077 13.394 16.3725 13.5505 16.4879 13.6659C16.6033 13.7813 16.7599 13.8461 16.9231 13.8461C17.0863 13.8461 17.2428 13.7813 17.3582 13.6659C17.4736 13.5505 17.5384 13.394 17.5384 13.2308V11.3846H19.3846C19.5478 11.3846 19.7043 11.3198 19.8197 11.2044C19.9352 11.089 20 10.9324 20 10.7692C20 10.606 19.9352 10.4495 19.8197 10.3341C19.7043 10.2187 19.5478 10.1538 19.3846 10.1538H17.5384V8.30769Z"
        fill="white" />
</svg>

<svg width="24" height="24" fill="none" xmlns="http://www.w3.org/2000/svg"><path d="M6.462 7.385a3.385 3.385 0 1 1 6.769 0 3.385 3.385 0 0 1-6.77 0zM4 17.846a5.846 5.846 0 0 1 11.692 0v.1a.616.616 0 0 1-.298.517A10.721 10.721 0 0 1 9.846 20c-2.028 0-3.927-.561-5.547-1.537a.616.616 0 0 1-.298-.517l-.001-.1zm13.538-9.538a.615.615 0 1 0-1.23 0v1.846H14.46a.615.615 0 0 0 0 1.23h1.847v1.847a.615.615 0 1 0 1.23 0v-1.846h1.847a.615.615 0 1 0 0-1.231h-1.847V8.308z" fill="#fff"/></svg>
